X:15
T:Morgan Magan
Z: id:dc-ocarolan-21
M:C
L:1/8
K:G Major
D2|D2G2 G2A2|cBAG Bcd2|e2A2 A2G2|G2FE D2EF|!
G4 GFGA|G2FE D3G|FGAB cBAG|F2E2 D2EF|!
G3B cAFA|G4 G2B2|c3B ABc2|d2d2 e2c2|!
d2B2 cBAG|AGFE D2EF|G2B2 cAFA|G4 G2:|!
dc|B2d2 d2ef|g2gf gdBd|g2gf gdBd|e2A2 A3c|!
BABc d2g2|e2c2 d2B2|c2A2 d2G2|F2D2 D2GF|!
E2D2 C2CD|E2C2 C2AG|F2E2 D2DE|F2D2 D2Bc|!
d4 edcB|cBAG AGFE|D2B2 cAFA|G4 G2:|!

